!!!OTL: "Kuhreigen" BIN I NIT E LUSTIGE SCHWITZERBUE
!!!ARE: Europa, Mitteleuropa, Appenzell
!!!SCT: Z1308
!!!YEM: Copyright 1995, estate of Helmut Schaffrath.
**kern
*ICvox
*Ivox
*M2/4
*k[f#]
*G:
{16d
16d
=1
8g
8g
8b
16b
16b
=2
8dd
16ee
16dd
8b
16b
16b
=3
8dd
8cc
8a
16a
16a
=4
8b
8gg
8bb}
{16d
16d
=5
8g
16g
16a
8b
16b
16cc
=6
8dd
16ee
16dd
8b
16b
16b
=7
8dd
8cc
8a
16a
16a
=8
4b
8r}
{8g
=9
8a
16a
16a
16g
16f#
16e
16d
=10
8a
8a
16g
16f#
16e
16d
=11
8a
8a
[4dd
=12
8dd]
16f#
16a
16a
16g
16e
16f#
=13
8d
8d
8d
8r}
=14
{8g
8g
16b
16a
16b
16cc
=15
8dd
16ee
16dd
8b
16cc
16b
=16
8dd
8cc
8a
16a
16a
=17
8b
8gg
8bb}
{16b
16b
=18
8dd
8cc
8a
16a
16a
=19
4.b}
{16b
16dd
=20
8cc
16a
16cc
16aa
16a
16cc
16ee
=21
8dd
16b
16bb
8gg
16b
16dd
=22
8cc
16a
16cc
16aa
16a
16cc
16ee
=23
8dd
16b
16bb
8gg}
{16dd
16bb
=24
[4gg
16gg]
16dd
16bb
16dd
=25
[4gg
16gg]
16dd
16bb
16dd
=26
16gg
16dd
16bb
16dd
16gg
16dd
16ddd
16bb
=27
4gg
8r}
==
!!!AGN: Handwerker -, Bauern - Lied
!! Die letzten 8 Takte werden auf die Silbe 'do' gesungen.
!!!ONB: ESAC (Essen Associative Code) Database: ZUCCAL
!!!AMT: simple duple
!!!AIN: vox
!!!EED: Helmut Schaffrath
!!!EEV: 1.0
*-
